X:1
T:Suite D minor
T:Suite D minor
T:Prélude
T:Robert de Visée (1655 – 1732)
T:Allemande
T:Courante
T:Sarabande
T:Gavotte
T:Menuet I
T:Menuet II
T:Bourrée
T:Gigue
T:De gitaarclub 2019
T:De gitaarclub 2019
T:De gitaarclub 2019
T:De gitaarclub 2019
T:De gitaarclub 2019
T:De gitaarclub 2019
T:De gitaarclub 2019
T:De gitaarclub 2019
C:Ronbert de Visée (1655 – 1732)
Z:De gitaarclub 2019
%%score ( 1 2 3 4 )
L:1/8
Q:1/8=100
M:4/4
K:F
V:1 treble-8 nm="Klassieke gitaar" snm="Git."
V:2 treble-8 
V:3 treble-8 
V:4 treble-8 
V:1
!p! z (!4!a !2!g!4!a !1!e!4!g !2!f!1!e | !2!f)(f"^3V" e!2!f !2!dd"^3III" d!2!!e | %2
 !3!^c2) (z2 z !4!d !4/2/4/2!c>!1!d | %3
 !-(!!4!e!-)!!4!g !2!f!3!e !4!f"^III"!3!!1![eg] !3!!-(!!4![dg]>!-)!!4!a | %4
 !4!a)!mf!(a !0!e!2!g !2/1/2/1!^f2 !1!A!4!=c | z)!mf! (!4!g !3!d!1!=f !1/0/1/0!=e2 !0!G!4!_B | %6
!mf! z)"^3I" (!1!f !1!f!0!e"^3III" d!4!b !4!b(!3!a | %7
 !1!g)!2!f{fef} !2/0/2/0!e>e e2)!f! (z/ (!4!g/!1!=f/!0!e/) | %8
 !4!d2) (z/ (!1!f/!0!e/)!4!d/{d^cd} !4/2/4/2!c3 !4!d | !arpeggio!!0!!2!!4![DAd]8) |] %10
[M:2/2][Q:1/4=80] a | !2!!1![fa]6 (!3!b!1!a) | !1!g3 g g3 !4!a | !1!f2 !3!d2 !4!g2 (gf) | %14
 !0!e2 !1!f2 !4!d3 !0!e | !3!^c3 !3!c !4!d2 !4!e2 | !4!f2 (!3!e!1!d) !1!c3 !4!_B | %17
 c2 !2!A2 !1!f3 !0!e | f2 !4!d2 !4!b3 b | !4!b4 !3!a3 a |"^III" !3!a4 !4!b(!3!a!1!g)!4!f | %21
 !0!e4 !1!f3 f | !4!g2 (!3!a!4!b)"^III" P!3!!4/1/4/1![eg]3 !4!f |1 !3!!4![cf]6 z !1!a :|2 %24
 [cf]6 z !3!a |:"^III" a4 z (!3!ag)!4!f | !3!!1![eg]4 [dg]2"^V" !4![^fa]2 | %27
 !1!b3 !4!b"^III" b3 !3!a | !4!!3![=fa]2 !1!d2 !3!a2 ([fa]!4!=b) | %29
"^V" !4!c'2 c'2 !4!=b2 (!1!a!4!b) | !1!^g6 z2 | !4!a4 !4!=b2 b2 | !4!c'4 !4!a3 a | %33
 !4!_b4 !4!g2 g2 | !4!a2 a2 !4!d2 d2 |"^III" g4 !2!g3 g | !1!f2 f2 !0!e3 !4!d | %37
 !3!^c2 !4!a2 (!4!a!1!g) (!1!f!0!e) | (fe) (!1!f!4!g) P!2!!1/0/1/0![^ce]3 !4!d |1 %39
 !2!!4![Ad]6 z !3!a :|2 [Ad]6 z |][M:6/4][Q:1/4=120] !2!a | %42
 !3!!2![fa]3 !1!A !3!d2 !0!e2 !1!f3 !4!d | !3!^c6 !4!a2 !1!g3 !0!e | %44
 !1!f3 f !-(!!4!g2 !-)!!4!a2"^VI" b3 !-(!!4!a | %45
"^III" !4!!-)!!1![eg]4"^I" !2!!1![Af]2 !1!c2 !4!d2 !2!!0![^ce]2 | %46
 !3!!1![df]3 !4!g (!1!f!0!e)(!4!d!1!c) !3!!0![A=B]3 (!1!^G/!3!A/) | %47
 !3!A6 !arpeggio!!3!!4![A^ce]4 z :: e | e3 e !1!f2 !3!d2 !4!g3 !1!f | !0!e6 z3 !4!c' !1!b2 | %51
 !4!a3 !-(!a !-)!!4!b2"^III" !4!ag !-(!!4!g3 !-)!!4!^f | !4!g6 z3 !4!=g !1!f2 | %53
 !0!e3 e(!1!f!4!g) !3!d3 d(!0!e"^I"!1!f) | !3!^c6 z3 !-(!!4!a !-)!!4!g2 | %55
 !1!f3 !0!e !4!d3 !0!e !3!^c3 !4!d | d6 !arpeggio![Adf]4 z :|[M:3/4][Q:1/4=80]"^V" !2!f |: %58
 f2 !3!!4!!2![Adf]3 !4!g | !1!e2 !3!!2!!1![A^ce]3 !-(!!4!a | %60
 !-)!!4!d2"^III" [Bd]2 (!3!e>!-(!!4!f) | !-)!!4!^c2 !2!!3!!4![EAc]3 !1!a | %62
 !2!!1![fa]2 [fa]3 !-(!!4!=b | !3!!-(!!4![gc']2 !1!!-)!!4![da]3"^V" a | %64
 !4!!2![db]2"^III" g3 !4!a |1"^3II" !4![^ca]2 [Aca]3 !2!f :|2"^3II" !4![^ca]2 [Aca]3 !0!e |: %67
 !2!!0![^ce]2 !3!!1![df]3 !4!g | !3!!2![d^f]2 [df]3 f | !4!g2 !-(!g3 !-(!!4!^f | %70
 !-)!!4!g2 g3 !1!=f |"^V" e2 !3!f3 !2!e | !4!d2 d3 !3!e | (e!-(!!4!f) !-)!P!4/3/4/3!^c3 !4!d |1 %74
 (!arpeggio![A^c]!4!d) [Ad]3 !0!e :|2 (!arpeggio![A^c]!4!d) [Ad]3 |] %76
[M:2/2][Q:1/4=100] d2 M!3/1/3!e2 | !3!f2 (!2!f!-(!!4!g) !-)!!4!e2 (!2!d!-(!!4!e) | %78
 !-)!!2!^c2 A2 !4!g2 (P!4/1/4/1!fe) | f2 (!4!g!1!f) !0!e2 !4!d2 | !1!!4![^ca]4 :| %81
 [^ca]4 !4!a2 P!4/2/4/2!g2 |: !2!^f3 f !-(!!4!g2 !-(!!4!a2 | %83
 (!-)!!3!a!4!b) !-(!b2 (!-)!!1!fe) !4!d2 | !0!e2 !1!f2 f3 e | !2!!1![Af]4 f2 P!1/0/1/0!e2 | %86
 !-(!!4!d3 !-)!!4!e"^III" M!4/1/4!e3 !1!d | !3!^c2 !1!A2 !4!a2 !2!c2 | %88
 M!4/2/4!d3 !0!e P!1/0/1/0!e3 !4!d | !2!!4![Ad]4 !1!f2 P!1/0/1/0!e2 | %90
 !-(!!4!d3 !-)!!4!e"^III" M!4/1/4!e3 !1!d |"^4II" ^c2 A2 !4!a2 (!3!d!2!c) | %92
 (^c!4!d-) de P!1/0/1/0!e3 !3!d |1 !2!!3![Ad]4 !4!a2 P!4/1/4/1!g2 :|2 !arpeggio![xAd]4 |] %95
[M:3/4][Q:1/4=100]!p!"^4V" a4 !4!g2 | !2!f2 (!1!e!2!f) !2!d2 | !1!!4![Be]2 !2!^c4 | %98
 !3!d(!2!^cd)(!1!e!2!f!4!g) | !1!a4 !-(!!1!g2 | !-)!!1!f2 (!3![^ce]!2!f) !-(!d2 | %101
"^III" !-(!!3!e2 !-)!P!4/3/4/3!^c3 !4!d |{^c} [Ad]6 ::"^V" !2![fa]2 f2"^VI" !2![db]!4!a | %104
"^III" !3![eg]2 [eg]2"^V" [ca]!4!g |"^I" !3![df]2 [df]2"^III" [Bg]!4!f | %106
"^III" !3!!4![ce]3 d"^V" !1!c2 | !3!!f2 f3 !2!e | !4!d3 !1!d !3!e2 | %109
 !2!!4![cf]2"^III" g!4!f!3!e!4!d | P!42/4/2!^c4 z2 |"^4V" a4 !4!g2 | %112
 !2!f2 (P!2/1/2/1!e!2!f) !2!d2 | !1!!4![Be]2 !2!^c4 | !3!d(!2!^cd)(!1!e!2!f!4!g) | %115
 !1!a4 (!1!g!4!a) | (!4!g!1!f) (e!2!f) d2 |"^III" (!4!f!3!e) P!4/3/4/3!^c3 !4!d |{^c} [Ad]6 |] %119
[K:D][M:3/4][Q:1/4=100] !2!f2 (!4!g!2!f)(!0!e!2!f) | !3!d2 !3!!4![ea]4 | !1!!3!!2![Adf]4 (f!4!g) | %122
 !2![ce]4 e2 | f2 (gf)(ef) | d2 !3!!4![ea]4 | f3 f (fg) | [ce]4 z2 :: !2!!0![ce]2 (e!3!f !4!g2) | %128
 !3!!2![df]6 | (e!3!f!4!gf)P!3/0/3/0!e!4!d | P!4/3/4/3!c4 !3!d2 | !2!!0![ce]2 (e!3!f !4!g2) | %132
 !1!!2![Af]2 (!4!g!2!f!0!e)!3!d | !1!!2!!0![Ace]2 (!3!f!0!e)(P!0/3/0/3!d!2!c) | %134
 !1!!3![Ad]4"_(Menuet I da capo)" z2 :|[K:F][M:2/2][Q:1/4=120] !4!d!0!e | %136
 !1!f2 !4!d2 f2 !-(!!4!g2 | !-)!!4!a2 !2!d2 !4!a2 !0!e2 | !1!f2 !2!^c2 !4!d2 !4!g!1!f | %139
 e2 !3!^c4 !4!d!0!e | !1!f2 !4!d2 f2 !-(!!4!g2 | !-)!!4!a2 !2!d2 !4!a2 !0!e2 | %142
 !1!f2 !2!^c2 !4!d2 !4!g!1!f | P!2!!1/0/1/0![^ce]6 :: !0!e!4!d | !2!^c3 c !4!d2 !2![ce]2 | %146
 !1!f2 !4!d2 e3 !0!e | !4!^f2 !4!g2 !-(!!4!g3 !-(!!4!f | !-)!!4!g4 z2 !1!g!3!a | %149
 !4!b2 (ag) (fe) f2 | !3!^c2 A2 !-(!!4!a2 (!-)!!4!gf) | !2![^ce]2 !4!d2 d3 !2!^c | !1!!3![Ad]6 :| %153
[M:3/4]!p![Q:1/4=120] !3!a2 | !4!f3 !3!e !1!d2 | !3!a6 | !0!e6 | !1!f2 f2 !0!e2 | !4!d4 e2 | %159
 !3!^c6 | !4!d6 | !4!e4 !1!f2 | !4!g3 (!3!a!4!b)g | !3!a2 a2 !-(!!4!f2 | !-)!!4!d3 (!0!e!1!f)!4!d | %165
 (fe)(!4!d!1!c) !2!!1![Af]2 |"^I" !4![df]3 !4!g !0!e2 |"^I" !2![Af]4 :: !4!c'2 | !1!a3 !3!g !1!f2 | %170
 !0!e2 !1!c4 | !1!f6 | !4!g4 g2 | g3 f !-(!g2 | !-)!!4!a2 !-(!a2 !-)!!4!g2 | f3 g (fe) | %176
 d2 (c=B) c2 | !2!!1![Ac]3 !4!d =B2 | !2!!1![Ec]4"^V" e2 | e4 !2!f2 |"^III" d4 !-(!!4!e2 | %181
 !-)!!2!^c4 !3!d2 | !0!e2 !2!A2 !1!f2 | !3!^f3 !0!e !3!f2 | !4!g2 !-(!g4 | %185
 !-)!!4!^g3 !2!^f !-(!g2 | !3!!-)!!4![ea]2 !-(!!1!=g2 !-)!!1!=f2 | !0!e2 !1!f2 !4!g2 | %188
 !2!^c2 !1!A2 !2!!4![da]2 | !3!!4![Bd]3 !0!e !1!!2![E^c]2 | M!4/2/4![xd]4 :| %191
V:2
 x8 | !3!d2 c2 !3!=B2 !1!_B2 | !4!AA !3!E!1!G !3!F2 !1!E!0!D | !2!^C2 A,2 !2!D=C !1!B,2 | %4
 A,2 !3!^C2 D2 !3!^F2 | !0!G2 !2!=B,2 !3!C2 !2!E2 | !3!F2 !2!!1![Ac]2 B2 !0!!1![Gd]2- | %7
 [Gd]2 [^G=B]2 !2!!3![A^c]2 A,2 | !1!B,/(!3!C/!1!B,/!0!A,/) !3!G,2 A,2 A,2 | x8 |][M:2/2] x | %11
 D4 D4- | D4 !2!^C4 | D4 !2!=B,4 | !3!C2 !2!A2 !3!_B2 !0!G2 | !2!A2 A,2 !2!=B,2 !2!^C2 | %16
 !0!D4 !2!E4- | E2 !3!F2 !2!A4- | A2 !3!B2 !0!!1![Gd]4 | !2!!3![ce]4 !1!!2![Fc]4 | [Bd]4 z4 | %21
 z2 !3!B2 !2!A3 A | !0!G2 !1!F2 C4 |1 !1!F3 !1!G !4!F2 !3!E2 :|2 F,6 z2 |: !1!!2![Fc]4 F4 | %26
 C2 !2!c2 B2 !3!A2 | !0!G4 G,4 | !0!D6 d2 | [ce]4 !3!!2![df]4 | !2!e3 !0!=B !3!e2 (e!1!d) | %31
 !3!c2 !0!=B!3!A !2!^G4 | !3!A2 A!0!=G !2!^F2 !3!D2 | !0!G2 !0!G!3!=F !2!E2 !3!C2 | %34
 !1!F4 !1!B,2 B,!0!A, | G,2 !4!G2 !3!^C4 | D2 x2 !0!G4 | !2!A2 (!0!A,!1!=B,) ^C2 A,2 | %38
 D2 !3!G,2 A,4 |1 D6 z2 :|2 D6 z |][M:6/4] x | D6 !4!^C2 !0!!2![DA]4 | A,6 x6 | %44
 D4 !2!E2 !1!F2 B,4 | C4 F,2 !3!F4 !1!E2 | D4 D4 !2!E2 E,2 | z2 A,2 !2!E2 [A,E]4 z :: x | %49
 !2![A,^c]4 !2![DA]4 !2!!3![=B,d]4 | !3!C3 !1!c !3!_B2 !2!A4 !0!G2 | %51
 !2!!1![^Fd]4 !0!!1![Gd]2 !2![C_e]2 !2![DA]4 | !2!G,3 !0!G !3!=F2 !2!E4 D2 | %53
 !4!^C2 !3!=C4 !2!=B,2 !1!_B,4 | A,3 !2!A !0!G2 !1!F4 !2!E2 | D2 A,2 !1!B,2 !2!!G,2 A,4 | %56
 z2 !0!D2 !2!A2 D4 z :|[M:3/4] x |: D2 D4 | !0!A,4 A,2 | B,2 G,4 | A,2- A,3 z | !3!d2 D4 | %63
 !1!E2 !2!^F4 | !1!G!3!A [GB]4 |1 A2 !0!A,3 z :|2 A2 !0!A,3 z |: A,2 D4 | D4 D2 | !1!B,2 D4 | %70
 !2!G,!0!A, !2!=B,4 | !4!C!2!_B, A,4 | !1!B,3 !0!A,"^III" G,2- | G,2 A,4 |1 D2 D3 z :|2 D2 x z2 |] %76
[M:2/2] !1!d2 !-(!!4!^c2 | !-)!!4!d2 D2 !0!G4 | !1!A6 A,2 | !2![DA]4 !3!=C2 !1!B,2 | E4 :| %81
 E4 z2 !1!A2 |: !3!d2 !1!c2 !3!B2 !1!A2 | G4 !2!A2 !3!B2- | B2 !2!A2 G4 | %85
 !-(!!3!F2 !-)!!3!E2 D2 C2 | !1!B,2 A,2 G,4 | A,4- A,2 !1!A2 | !3!B2 !0!G2 !2!A2 G2 | %89
 !3!F2 !1!E2 !0!D2 !3!C2 | !1!B,2 A,2 [G,B]4 | [A,E]4 z2 A,2 | !1!B,2 !3!G,2 A,4 |1 D4 z2 !1!A2 :|2 %94
 D4 |][M:3/4] !3!!2![df]2 !2![^ce]4 | !3!d2 !-(!!3!A2 !-)!!3!B2 | !-(!!3!G2 !-)!!3!A4 | D6 | %99
 !-(!!2![Df]2 !2!!-)!!3![^Ce]4 | !3![Dd]2 A,2 !1!!3![B,d]2 | [G,B]2 !2![A,A]4 | D6 :: %103
 D2 D!4!C B,2 | C2 C!4!B, A,2 | B,2 B,!0!A, G,2 | C2 C3 !2!B, | [A,c]4 z2 | !1!!3![B,B]4 z2 | %109
 A,2 G,4 | !1![A,E]2 (!1!A!4!=B)!3!^c!4!A | !3!!2![df]2 !2![^ce]4 | !3!d2 !3!A2 !3!B2 | %113
 !3!G2 !3!A4 | D6 | !2![Df]2 !2!!3![^Ce]4 | !3![Dd]2 !3![A,^c]2 !1!!3![B,d]2 | [G,B]2 !2![A,A]4 | %118
 D6 |][K:D][M:3/4] !1!!3![D-A-d]6 | [DA]2 !1!C4 | D4 [GB]2 | !1!A4 z2 | [D-A-d]6 | [DA]2 !1!C4 | %125
 [DAd]4 [GB]2 | A4 x2 :: A,6 | D2 !4!F!0!G !1!A2 | [GB]4 !1!^G2 | !2!A4 z2 | A,6 | D6 | A,6 | %134
 D4 x2 :|[K:F][M:2/2] x2 | D6 !2!E2 | !1!F6 !2!^C2 | !0!D2 !1!A2 !3!B2 G2 | !2!A6 z2 | D6 !2!E2 | %141
 !1!F6 !2!^C2 | !0!D2 A,2 !1!B,2 !3!G,2 | A,6 :: x2 | !1!A3 !0!G !3!F2 !1!E2 | %146
 D4 !-(!!3!=C2 !-)!!2!B,2 | A,2 !2!G,2 D4 | !2!G,2 !0!G!2!A !3!B2 z2 | G6 D2 | %150
 !2!A4 !1!F2 !3![Gd]2 | !1!A2 !3!B2 !1!A2 A,2 | D6 :|[M:3/4] x2 | x6 | z2 z2 !1!d2 | %156
 !-(!!4!^c3 !-)!!4!=B !2!A2 | !4!d4 !1!=c2 | !3!_B3 !2!A G2 | !2!A4 !2!A2 | !3!F3 !2!E !0!D2 | %161
 !2!^C2 !0!A,2 !0!D2 | !2!E2"^III" !1!=C4 | F4 !0!A,2 | !1!B,2 !2!=B,4 | C4 D2 | B,2 !3!G,2 !3!C2 | %167
 F,4 :: x2 | x6 | z2 z2 c2 | !2!A3 G F2 | !2!E2 !3!C2 CD | E3 D C2 | !1!F4 !2!E2 | D4 C2 | G4 A2 | %177
 !3!F2 D2 G2 | !3!C4 z2 | c2 !3!A2 z2 | B2 !3!G2 z2 | !1!A2 A,2 !1!=B,2 | !4!^C4 A,2 | %183
 D2 D2 !4!!=C2 | !1!=B,4 B,2 | !1!E2 E2 !0!D2 | !2!^C4 D2 | !3!=C4 !1!_B,2 | A,4 !1!F2 | %189
 !1!B,2 !2!G,2 A,2 | !0!!1![DA]4 :| %191
V:3
 x8 | x8 | x8 | x8 | !1!^c2 x2 z!p! !2!d x2 | !0!=B2 x2 z!p! !1!c x2 | !2!A2 x6 | x8 | x8 | x8 |] %10
[M:2/2] x | x8 | !4!e4 e4 | x8 | x8 | x8 | x8 | x8 | x8 | x8 | x8 | x8 | x8 |1 x8 :|2 x8 |: x8 | %26
 x8 | !4!g4 d4 | x8 | x8 | x8 | z4 !1!e4 | !1!e4 !1!d4 | !1!d4 !1!c4 | !3!c4 !3!B4 | B4 !1!A4 | %36
 !2!A2 !4!d2 x4 | x8 | x8 |1 x8 :|2 x7 |][M:6/4] x | x12 | x12 | x8 !2!d4 | x12 | x12 | x11 :: x | %49
 x12 | x12 | x12 | x12 | x12 | x12 | x12 | x11 :|[M:3/4] x |: x6 | x6 | x6 | x6 | x6 | x6 | x6 |1 %65
 x6 :|2 x6 |: x6 | x6 | x6 | x6 | x6 | x6 | x6 |1 x6 :|2 x5 |][M:2/2] x4 | x8 | x8 | x8 | x4 :| %81
 x8 |: x8 | x8 | x8 | x8 | x8 | x8 | x4 !3!^c3 x | x8 | x8 | x8 | x8 |1 x8 :|2 x4 |][M:3/4] x6 | %96
 x6 | x6 | x6 | x6 | x6 | x6 | x6 :: x6 | x6 | x6 | x6 | x6 | x6 | x6 | x6 | x6 | x6 | x6 | x6 | %115
 x6 | x6 | x6 | x6 |][K:D][M:3/4] x6 | x6 | x6 | x6 | x6 | x6 | x6 | x6 :: x6 | x6 | x6 | x6 | x6 | %132
 x6 | x6 | x6 :|[K:F][M:2/2] x2 | x8 | x8 | x8 | x8 | x8 | x8 | x8 | x6 :: x2 | x8 | !2!A4 !1!=c4 | %147
 !1!c2 !3!B2 !2!A4 | !3!B4 x4 | x8 | x8 | x8 | x6 :|[M:3/4] x2 | x6 | x6 | x6 | x6 | x6 | x6 | x6 | %161
 x6 | x6 | x6 | x6 | x6 | x6 | x4 :: x2 | x6 | x6 | x6 | x6 | x6 | x6 | x6 | x6 | x6 | x6 | x6 | %180
 x6 | x6 | x6 | !2!A4 !2!A2 | !3!d4 d2 | !0!=B4 B2 | x6 | x6 | x6 | x6 | x4 :| %191
V:4
 x8 | x8 | x8 | x8 | x8 | x8 | x8 | x8 | x8 | x8 |][M:2/2] x | x8 | x8 | x8 | x8 | x8 | x8 | x8 | %18
 x8 | x8 | x8 | x8 | x8 |1 x8 :|2 x8 |: x8 | x8 | x8 | x8 | x8 | x8 | x8 | x8 | x8 | x8 | x8 | x8 | %37
 x8 | x8 |1 x8 :|2 x7 |][M:6/4] x | x12 | !2!A2 !0!G!4!F !2!E!0!D !2!^C6 | x12 | x12 | x12 | x11 :: %48
 x | x12 | x12 | x12 | !3!B4 x8 | x12 | x12 | !4!d4 !3!B4 !1!E2 !2!A2 | x11 :|[M:3/4] x |: x6 | %59
 x6 | x6 | x6 | x6 | x6 | x6 |1 x6 :|2 x6 |: x6 | x6 | !3!d2 !2!A4 | !3!B2 !3!d4 | c2 c4 | %72
 !3!B2 B4 | B2 !2!A4 |1 x6 :|2 x5 |][M:2/2] x4 | x8 | x8 | x8 | x4 :| x8 |: x8 | x8 | x8 | x8 | %86
 x8 | x8 | x8 | x8 | x8 | x8 | x8 |1 x8 :|2 x4 |][M:3/4] x6 | x6 | x6 | x6 | x6 | x6 | x6 | x6 :: %103
 x6 | x6 | x6 | x6 | x6 | x6 | x6 | x6 | x6 | x6 | x6 | x6 | x6 | x6 | x6 | x6 |][K:D][M:3/4] x6 | %120
 x6 | x6 | x6 | x6 | x6 | x6 | x6 :: x6 | x6 | x6 | x6 | x6 | x6 | x6 | x6 :|[K:F][M:2/2] x2 | x8 | %137
 x8 | x8 | x8 | x8 | x8 | x8 | x6 :: x2 | x8 | x8 | x8 | x8 | x8 | x8 | x8 | x6 :|[M:3/4] x2 | x6 | %155
 x6 | x6 | x6 | x6 | x6 | x6 | x6 | x6 | x6 | x6 | x6 | x6 | x4 :: x2 | x6 | x6 | x6 | x6 | x6 | %174
 x6 | x6 | x6 | x6 | x6 | x6 | x6 | x6 | x6 | x6 | x6 | x6 | x6 | x6 | x6 | x6 | x4 :| %191

